javascript.info/1-js/5-functions-closures/6-memory-management/family-no-father.svg

<?xml version="1.0" encoding="UTF-8" standalone="no"?>
<svg width="350px" height="225px" viewBox="0 0 350 225" version="1.1" xmlns="http://www.w3.org/2000/svg" xmlns:xlink="http://www.w3.org/1999/xlink" xmlns:sketch="http://www.bohemiancoding.com/sketch/ns">
    <!-- Generator: Sketch 3.2.2 (9983) - http://www.bohemiancoding.com/sketch -->
    <title>family-no-father</title>
    <desc>Created with Sketch.</desc>
    <defs></defs>
    <g id="family-no-father" stroke="none" stroke-width="1" fill="none" fill-rule="evenodd" sketch:type="MSPage">
        <rect id="Rectangle-1" stroke="#979797" sketch:type="MSShapeGroup" x="139" y="18" width="80" height="30"></rect>
        <text id="window" sketch:type="MSTextLayer" font-family="Consolas" font-size="14" font-weight="normal" fill="#000000">
            <tspan x="139" y="11">window</tspan>
        </text>
        <text id="Корень" sketch:type="MSTextLayer" font-family="Consolas" font-size="14" font-weight="normal" fill="#000000">
            <tspan x="156" y="37">Корень</tspan>
        </text>
        <rect id="Rectangle-2" stroke="#979797" fill="#E8E8E8" sketch:type="MSShapeGroup" x="139" y="85" width="80" height="28"></rect>
        <text id="Object" sketch:type="MSTextLayer" font-family="Consolas" font-size="14" font-weight="normal" fill="#000000">
            <tspan x="156" y="102">Object</tspan>
        </text>
        <rect id="Rectangle-3" stroke="#979797" fill="#E8E8E8" sketch:type="MSShapeGroup" x="21" y="153" width="120" height="50"></rect>
        <text id="Object-2" sketch:type="MSTextLayer" font-family="Consolas" font-size="14" font-weight="normal" fill="#000000">
            <tspan x="56" y="171">Object</tspan>
        </text>
        <text id="wife" sketch:type="MSTextLayer" font-family="Consolas" font-size="14" font-weight="normal" fill="#000000">
            <tspan x="164" y="154">wife</tspan>
        </text>
        <text id="family" sketch:type="MSTextLayer" font-family="Consolas" font-size="14" font-weight="normal" fill="#000000">
            <tspan x="124" y="69">family</tspan>
        </text>
        <text id="name:-&quot;Василий&quot;" sketch:type="MSTextLayer" font-family="Consolas" font-size="12" font-weight="normal" fill="#000000">
            <tspan x="36" y="191">name: "Василий"</tspan>
        </text>
        <rect id="Rectangle-4" stroke="#979797" fill="#E8E8E8" sketch:type="MSShapeGroup" x="230" y="153" width="120" height="50"></rect>
        <text id="name:-&quot;Мария&quot;" sketch:type="MSTextLayer" font-family="Consolas" font-size="12" font-weight="normal" fill="#000000">
            <tspan x="247" y="191">name: "Мария"</tspan>
        </text>
        <text id="mother" sketch:type="MSTextLayer" font-family="Consolas" font-size="14" font-weight="normal" fill="#000000">
            <tspan x="259" y="133">mother</tspan>
        </text>
        <text id="Object-3" sketch:type="MSTextLayer" font-family="Consolas" font-size="14" font-weight="normal" fill="#000000">
            <tspan x="261" y="171">Object</tspan>
        </text>
        <path d="M180.5,50.5 L180.5,81.5" id="Line" stroke="#979797" stroke-linecap="square" fill="#979797" sketch:type="MSShapeGroup"></path>
        <path id="Line-decoration-1" d="M180.5,81.5 C181.55,77.72 182.45,74.48 183.5,70.7 C181.4,70.7 179.6,70.7 177.5,70.7 C178.55,74.48 179.45,77.72 180.5,81.5 C180.5,81.5 180.5,81.5 180.5,81.5 Z" stroke="#979797" stroke-linecap="square" fill="#979797"></path>
        <path d="M150.5,162.5 L211.5,162.5" id="Line" stroke="#979797" stroke-linecap="square" fill="#9B9B9B" sketch:type="MSShapeGroup"></path>
        <path id="Line-decoration-1" d="M211.5,162.5 C207.72,161.45 204.48,160.55 200.7,159.5 C200.7,161.6 200.7,163.4 200.7,165.5 C204.48,164.45 207.72,163.55 211.5,162.5 C211.5,162.5 211.5,162.5 211.5,162.5 Z" stroke="#979797" stroke-linecap="square" fill="#9B9B9B"></path>
        <path d="M225.5,118.5 L272.5,150.5" id="Line" stroke="#979797" stroke-linecap="square" fill="#979797" sketch:type="MSShapeGroup"></path>
        <path id="Line-decoration-1" d="M271.789558,150.016295 C269.255943,147.021016 267.084274,144.453634 264.550659,141.458354 C263.368798,143.194213 262.355774,144.682091 261.173913,146.41795 C264.889389,147.677371 268.074082,148.756874 271.789558,150.016295 C271.789558,150.016295 271.789558,150.016295 271.789558,150.016295 Z" stroke="#979797" stroke-linecap="square" fill="#979797"></path>
        <rect id="Rectangle-5" stroke="#D0011B" sketch:type="MSShapeGroup" x="0" y="124" width="214" height="101"></rect>
        <path d="M21.0564444,127.28275 C12.2262222,127.28275 3.28755556,129.301424 3.28755556,133.161576 C3.28755556,134.336663 4.11911111,135.339217 5.51911111,136.167967 L8.58488889,161.946543 L8.58711111,161.945696 C8.65066667,164.44212 15.0391111,165.788043 21.056,165.788043 C29.1586667,165.788043 33.5302222,163.789293 33.5302222,161.910087 C33.5302222,161.905848 33.5293333,161.901185 33.5284444,161.898217 L33.5293333,161.898217 L36.5888889,136.171783 C37.992,135.343033 38.8271111,134.33963 38.8271111,133.162424 C38.8271111,129.301424 29.8884444,127.28275 21.0564444,127.28275 L21.0564444,127.28275 Z M35.716,137.751707 L34.9053333,136.97637 C35.2377778,136.844109 35.5617778,136.708033 35.8586667,136.561359 L35.716,137.751707 L35.716,137.751707 Z M35.6204444,138.57537 L35.1893333,142.187533 L32.8475556,144.42113 L27.3346667,139.162913 L27.9044444,138.619033 C30.2653333,138.316359 32.4364444,137.85387 34.2133333,137.233685 L35.6204444,138.57537 L35.6204444,138.57537 Z M33.6337778,155.268217 L33.1453333,155.734946 L27.5466667,150.394913 L32.8484444,145.338478 L34.6151111,147.02438 L33.6337778,155.268217 L33.6337778,155.268217 Z M23.6448889,158.107163 L21.5528889,156.112228 L27.0657778,150.853587 L32.6648889,156.192772 L29.6653333,159.054185 C28.1102222,158.590424 26.0928889,158.250446 23.6448889,158.107163 L23.6448889,158.107163 Z M29.0955556,159.596793 L27.1515556,161.452261 L24.3951111,158.82188 C26.2102222,158.975761 27.7977778,159.249185 29.0955556,159.596793 L29.0955556,159.596793 Z M12.472,159.04613 L9.48044444,156.192772 L15.0782222,150.853587 L20.5915556,156.112228 L18.5017778,158.10462 C16.0524444,158.245783 14.0306667,158.585337 12.472,159.04613 L12.472,159.04613 Z M17.7528889,158.819337 L14.9933333,161.452261 L13.0417778,159.590011 C14.3435556,159.24325 15.9351111,158.971522 17.7528889,158.819337 L17.7528889,158.819337 Z M8.47066667,155.229641 L7.49866667,147.053207 L9.29644444,145.338902 L14.5968889,150.394913 L8.99911111,155.734098 L8.47066667,155.229641 L8.47066667,155.229641 Z M6.24977778,136.560087 C6.55555556,136.709728 6.88755556,136.848772 7.23066667,136.985272 L6.39555556,137.781804 L6.24977778,136.560087 L6.24977778,136.560087 Z M7.92311111,137.242587 C9.704,137.861924 11.88,138.323565 14.2444444,138.623272 L14.8093333,139.163337 L9.29644444,144.42113 L6.91511111,142.14938 L6.49333333,138.605467 L7.92311111,137.242587 L7.92311111,137.242587 Z M16.0946667,129.448098 C16.1226667,129.445978 16.152,129.443859 16.1804444,129.440467 L20.5915556,133.648228 L17.1208889,136.958565 C15.588,136.850891 14.1968889,136.685989 12.9568889,136.477 L10.8404444,134.459174 L16.0946667,129.448098 L16.0946667,129.448098 Z M10.3595556,134.000924 L7.556,131.326033 C9.17555556,130.615978 11.6808889,129.945348 15.0142222,129.560435 L10.3595556,134.000924 L10.3595556,134.000924 Z M26.3728889,139.162913 L21.0724444,144.218924 L15.772,139.162913 L16.1248889,138.825902 C17.7328889,138.967489 19.3964444,139.04125 21.0568889,139.04125 C22.7275556,139.04125 24.4,138.967489 26.0168889,138.822511 L26.3728889,139.162913 L26.3728889,139.162913 Z M21.0724444,145.136272 L26.5857778,150.394489 L21.0724444,155.65313 L15.5591111,150.394913 L21.0724444,145.136272 L21.0724444,145.136272 Z M15.0782222,149.935391 L9.77777778,144.879804 L15.2906667,139.621163 L20.5911111,144.677598 L15.0782222,149.935391 L15.0782222,149.935391 Z M21.5533333,144.677598 L26.8533333,139.621163 L32.3662222,144.879804 L27.0657778,149.935391 L21.5533333,144.677598 L21.5533333,144.677598 Z M21.0564444,137.095065 C19.9897778,137.095065 18.9884444,137.061576 18.0271111,137.010707 L21.0724444,134.106478 L24.1151111,137.009435 C23.1453333,137.061576 22.1342222,137.095065 21.0564444,137.095065 L21.0564444,137.095065 Z M11.7604444,136.254022 C10.9413333,136.086576 10.2008889,135.900902 9.536,135.70463 L10.3595556,134.918272 L11.7604444,136.254022 L11.7604444,136.254022 Z M8.816,144.879804 L7.40044444,146.230391 L7.03777778,143.184152 L8.816,144.879804 L8.816,144.879804 Z M21.0724444,156.570478 L22.6355556,158.061804 C22.1244444,158.043576 21.6026667,158.03213 21.0568889,158.03213 C20.5235556,158.03213 20.0115556,158.043576 19.5106667,158.060109 L21.0724444,156.570478 L21.0724444,156.570478 Z M33.328,144.879804 L35.0666667,143.22188 L34.7106667,146.19987 L33.328,144.879804 L33.328,144.879804 Z M30.3915556,136.246391 L31.7848889,134.917848 L32.6026667,135.697848 C31.9413333,135.893272 31.2066667,136.07937 30.3915556,136.246391 L30.3915556,136.246391 Z M29.1937778,136.471913 C27.9542222,136.682598 26.5564444,136.8475 25.0213333,136.956446 L21.5533333,133.648228 L25.9617778,129.443435 C25.9911111,129.446402 26.0231111,129.447674 26.0533333,129.450641 L31.3035556,134.459174 L29.1937778,136.471913 L29.1937778,136.471913 Z M27.1346667,129.565098 C30.4675556,129.95213 32.9662222,130.62488 34.5786667,131.33663 L31.7848889,134.000924 L27.1346667,129.565098 L27.1346667,129.565098 Z M25.0751111,129.371793 L21.0724444,133.189978 L17.068,129.370522 C18.3062222,129.281924 19.6293333,129.229359 21.0568889,129.229359 C22.4946667,129.228935 23.8293333,129.282348 25.0751111,129.371793 L25.0751111,129.371793 Z M5.32755556,133.161576 C5.32755556,132.730457 5.86311111,132.181489 6.91511111,131.632946 L9.87822222,134.459598 L8.81555556,135.473598 C6.51644444,134.697837 5.32755556,133.800837 5.32755556,133.161576 L5.32755556,133.161576 Z M9.12888889,160.765522 L8.66977778,156.904522 L8.70177778,156.93462 L8.99911111,156.650598 L11.7546667,159.278435 C10.5262222,159.712946 9.64355556,160.225457 9.12888889,160.765522 L9.12888889,160.765522 Z M9.26311111,161.910087 C9.26311111,161.177565 10.3831111,160.409011 12.304,159.802815 L14.512,161.910087 L12.304,164.017359 C10.3826667,163.412011 9.26311111,162.640065 9.26311111,161.910087 L9.26311111,161.910087 Z M14.9928889,162.368761 L17.7524444,165.001685 C15.9351111,164.848228 14.3431111,164.576076 13.0408889,164.230587 L14.9928889,162.368761 L14.9928889,162.368761 Z M18.792,165.075022 L15.4742222,161.909663 L18.792,158.745152 C19.5186667,158.703609 20.2728889,158.679022 21.0564444,158.679022 C21.8528889,158.679022 22.6164444,158.704457 23.3537778,158.746 L26.6702222,161.909663 L23.3537778,165.073326 C22.6164444,165.115293 21.8524444,165.138609 21.0564444,165.138609 C20.2728889,165.13988 19.5191111,165.115293 18.792,165.075022 L18.792,165.075022 Z M27.1515556,162.368761 L29.096,164.22338 C27.7977778,164.570141 26.2102222,164.844413 24.3951111,164.999141 L27.1515556,162.368761 L27.1515556,162.368761 Z M29.8328889,164.009728 L27.632,161.910087 L29.8328889,159.811293 C31.74,160.415793 32.8515556,161.180957 32.8515556,161.910087 C32.8515556,162.639217 31.74,163.405228 29.8328889,164.009728 L29.8328889,164.009728 Z M30.3817778,159.287337 L33.1453333,156.650598 L33.4355556,156.929533 L32.9795556,160.761283 C32.4697778,160.226304 31.5955556,159.718457 30.3817778,159.287337 L30.3817778,159.287337 Z M33.3222222,135.465967 L32.2666667,134.459174 L35.2204444,131.641848 C36.2591111,132.188696 36.7853333,132.733 36.7853333,133.161152 C36.7866667,133.799565 35.6048889,134.692326 33.3222222,135.465967 L33.3222222,135.465967 Z" id="GOMI_3_" fill="#979797" sketch:type="MSShapeGroup"></path>
    </g>
</svg>

<svg width="350" height="225" viewBox="0 0 350 225" xmlns="http://www.w3.org/2000/svg"><title>family-no-father</title><desc>Created with Sketch.</desc><g fill="none" fill-rule="evenodd"><path stroke="#979797" d="M139 18h80v30h-80z"/><text font-family="Consolas" font-size="14" fill="#000"><tspan x="139" y="11">window</tspan></text><text font-family="Consolas" font-size="14" fill="#000"><tspan x="156" y="37">Корень</tspan></text><path stroke="#979797" fill="#E8E8E8" d="M139 85h80v28h-80z"/><text font-family="Consolas" font-size="14" fill="#000"><tspan x="156" y="102">Object</tspan></text><path stroke="#979797" fill="#E8E8E8" d="M21 153h120v50H21z"/><text font-family="Consolas" font-size="14" fill="#000"><tspan x="56" y="171">Object</tspan></text><text font-family="Consolas" font-size="14" fill="#000"><tspan x="164" y="154">wife</tspan></text><text font-family="Consolas" font-size="14" fill="#000"><tspan x="124" y="69">family</tspan></text><text font-family="Consolas" font-size="12" fill="#000"><tspan x="36" y="191">name: &amp;quot;Василий&amp;quot;</tspan></text><path stroke="#979797" fill="#E8E8E8" d="M230 153h120v50H230z"/><text font-family="Consolas" font-size="12" fill="#000"><tspan x="247" y="191">name: &amp;quot;Мария&amp;quot;</tspan></text><text font-family="Consolas" font-size="14" fill="#000"><tspan x="259" y="133">mother</tspan></text><text font-family="Consolas" font-size="14" fill="#000"><tspan x="261" y="171">Object</tspan></text><path d="M180.5 50.5v31" stroke="#979797" stroke-linecap="square" fill="#979797"/><path d="M180.5 81.5l3-10.8h-6l3 10.8z" stroke="#979797" stroke-linecap="square" fill="#979797"/><path d="M150.5 162.5h61" stroke="#979797" stroke-linecap="square" fill="#9B9B9B"/><path d="M211.5 162.5l-10.8-3v6l10.8-3z" stroke="#979797" stroke-linecap="square" fill="#9B9B9B"/><path d="M225.5 118.5l47 32" stroke="#979797" stroke-linecap="square" fill="#979797"/><path d="M271.79 150.016l-7.24-8.558c-1.18 1.736-2.194 3.224-3.376 4.96 3.715 1.26 6.9 2.34 10.616 3.598z" stroke="#979797" stroke-linecap="square" fill="#979797"/><path stroke="#D0011B" d="M0 124h214v101H0z"/><path d="M21.056 127.283c-8.83 0-17.768 2.018-17.768 5.88 0 1.174.83 2.176 2.23 3.005l3.067 25.78.002-.002c.064 2.496 6.452 3.842 12.47 3.842 8.102 0 12.473-2 12.473-3.878 0-.004 0-.01-.002-.012l3.06-25.726c1.404-.83 2.24-1.832 2.24-3.01 0-3.86-8.94-5.88-17.772-5.88zm14.66 10.47l-.81-.777c.332-.132.656-.268.953-.415l-.147 1.195zm-.096.822l-.43 3.613-2.342 2.233-5.513-5.254.57-.544c2.36-.303 4.53-.765 6.308-1.385l1.407 1.34zm-1.986 16.693l-.49.467-5.597-5.34 5.3-5.057 1.768 1.686-.98 8.244zm-9.99 2.84l-2.09-1.996 5.512-5.258 5.6 5.34-3 2.86c-1.556-.464-3.573-.804-6.02-.947zm5.452 1.49l-1.944 1.854-2.757-2.63c1.815.154 3.403.427 4.7.775zm-16.624-.552l-2.992-2.853 5.598-5.34 5.514 5.26-2.09 1.992c-2.45.14-4.47.48-6.03.94zm5.28-.227l-2.76 2.63-1.95-1.86c1.302-.35 2.893-.62 4.71-.77zm-9.28-3.59l-.972-8.18 1.795-1.715 5.3 5.055L9 155.736l-.53-.505zM6.25 136.56c.306.15.638.29.98.425l-.834.797-.146-1.222zm1.673.683c1.78.62 3.957 1.08 6.32 1.38l.566.54-5.517 5.258-2.38-2.27-.423-3.542 1.43-1.362zm8.172-7.795c.028-.002.057-.004.085-.008l4.412 4.208-3.47 3.31c-1.534-.107-2.925-.272-4.165-.48l-2.117-2.02 5.255-5.01zM10.36 134l-2.804-2.674c1.62-.71 4.125-1.38 7.458-1.766L10.36 134zm16.013 5.163l-5.3 5.056-5.3-5.06.352-.337c1.608.14 3.27.215 4.932.215 1.67 0 3.343-.074 4.96-.218l.356.34zm-5.3 5.973l5.513 5.258-5.514 5.26-5.513-5.26 5.51-5.258zm-5.995 4.8l-5.3-5.056 5.513-5.26 5.3 5.058-5.51 5.257zm6.475-5.258l5.3-5.057 5.513 5.26-5.3 5.058-5.513-5.257zm-.497-7.583c-1.066 0-2.068-.033-3.03-.084l3.046-2.9 3.043 2.902c-.97.053-1.98.086-3.06.086zm-9.296-.84c-.82-.168-1.56-.354-2.224-.55l.824-.787 1.4 1.336zm-2.944 8.625L7.4 146.23l-.362-3.046 1.778 1.696zm12.256 11.69l1.564 1.492c-.512-.018-1.033-.03-1.58-.03-.532 0-1.044.012-1.545.028l1.565-1.49zm12.256-11.69l1.74-1.658-.357 2.978-1.38-1.32zm-2.936-8.634l1.393-1.328.818.78c-.662.195-1.396.38-2.21.548zm-1.198.226c-1.24.21-2.638.375-4.173.484l-3.464-3.308 4.41-4.205.09.008 5.25 5.01-2.11 2.015zm-2.06-6.907c3.334.387 5.832 1.06 7.445 1.772L31.78 134l-4.65-4.435zm-2.06-.193l-4.002 3.818-4.004-3.82c1.238-.088 2.56-.14 3.99-.14 1.437 0 2.77.052 4.017.142zm-19.746 3.79c0-.432.535-.98 1.587-1.53l2.963 2.828-1.062 1.014c-2.3-.776-3.488-1.673-3.488-2.312zm3.8 27.604l-.458-3.86.032.03.297-.285 2.752 2.63c-1.23.436-2.11.948-2.626 1.49zm.135 1.144c0-.732 1.12-1.5 3.04-2.107l2.21 2.107-2.21 2.107c-1.92-.605-3.04-1.377-3.04-2.107zm5.73.46l2.76 2.632c-1.818-.154-3.41-.426-4.712-.77l1.956-1.863zm3.8 2.705l-3.32-3.165 3.32-3.165c.726-.04 1.48-.066 2.263-.066.797 0 1.56.02 2.298.063l3.316 3.164-3.316 3.162c-.738.04-1.502.065-2.298.065-.783 0-1.537-.025-2.264-.065zm8.36-2.706l1.943 1.85c-1.298.347-2.886.62-4.7.776l2.756-2.63zm2.68 1.64l-2.2-2.1 2.2-2.1c1.907.603 3.02 1.37 3.02 2.1s-1.113 1.492-3.02 2.1zm.55-4.726l2.762-2.636.29.28-.455 3.83c-.51-.535-1.384-1.043-2.598-1.474zm2.94-23.82l-1.056-1.008 2.953-2.818c1.04.546 1.565 1.09 1.565 1.52.002.637-1.18 1.53-3.463 2.303z" fill="#979797"/></g></svg>
